static/images/qr-code-icon.svg

<svg height="96" viewBox="0 0 95 96" width="95" xmlns="http://www.w3.org/2000/svg"><g fill="#686868" transform="translate(-.226 .348)"><path d="m25.77 34.668h-16.504c-2.40975196.1046329-4.75377019-.8015263-6.46652721-2.4998537-1.71275701-1.6983274-2.63871473-4.0345954-2.55447279-6.4451463-.025-5.519-.025-11.114 0-16.631-.03445652-2.37012354.87671394-4.65632652 2.532-6.353 1.71430745-1.64812398 4.01022-2.55240012 6.388-2.516 2.761-.013 5.561-.019 8.315-.019s5.556.006 8.315.019c2.3769142-.03601417 4.6705288.87495557 6.375 2.532 1.6505171 1.71306551 2.5564193 4.0094555 2.52 6.388.025 5.517.025 11.112 0 16.63.071703 2.3847372-.8458823 4.6929788-2.535274 6.3776356-1.6893916 1.6846568-4.0001995 2.5957602-6.384726 2.5173644zm-16.476-30.878c-3.03596723.0038566-5.4961434 2.46403277-5.5 5.5v16.554c.0033068 3.0361953 2.46380465 5.4966932 5.5 5.5h16.554c3.0361953-.0033068 5.4966932-2.4638047 5.5-5.5v-16.553c-.0038566-3.03596723-2.4640328-5.4961434-5.5-5.5z"/><path d="m25.77 94.784h-16.504c-2.40975196.1046329-4.75377019-.8015263-6.46652721-2.4998537-1.71275701-1.6983274-2.63871473-4.0345954-2.55447279-6.4451463-.025-5.519-.025-11.114 0-16.631-.03445652-2.3701235.87671394-4.6563265 2.532-6.353 1.71430745-1.648124 4.01022-2.5524001 6.388-2.516 2.761-.013 5.561-.019 8.315-.019s5.556.006 8.315.019c2.3769142-.0360142 4.6705288.8749556 6.375 2.532 1.6505171 1.7130655 2.5564193 4.0094555 2.52 6.388.025 5.517.025 11.112 0 16.63.071703 2.3847372-.8458823 4.6929788-2.535274 6.3776356-1.6893916 1.6846568-4.0001995 2.5957602-6.384726 2.5173644zm-16.476-30.878c-3.03596723.0038566-5.4961434 2.4640328-5.5 5.5v16.554c.0033068 3.0361953 2.46380465 5.4966932 5.5 5.5h16.554c3.0361953-.0033068 5.4966932-2.4638047 5.5-5.5v-16.553c-.0038566-3.0359672-2.4640328-5.4961434-5.5-5.5z"/><path d="m85.887 34.668h-16.504c-2.409752.1046329-4.7537702-.8015263-6.4665272-2.4998537s-2.6387147-4.0345954-2.5544728-6.4451463c-.025-5.519-.025-11.114 0-16.631-.0344565-2.37012354.8767139-4.65632652 2.532-6.353 1.7143075-1.64812398 4.01022-2.55240012 6.388-2.516 2.761-.013 5.561-.019 8.315-.019s5.556.006 8.315.019c2.3769142-.03601417 4.6705288.87495557 6.375 2.532 1.6505171 1.71306551 2.5564193 4.0094555 2.52 6.388.025 5.517.025 11.112 0 16.63.071703 2.3847372-.8458823 4.6929788-2.535274 6.3776356-1.6893916 1.6846568-4.0001995 2.5957602-6.384726 2.5173644zm-16.476-30.878c-3.0359672.0038566-5.4961434 2.46403277-5.5 5.5v16.554c.0033068 3.0361953 2.4638047 5.4966932 5.5 5.5h16.554c3.0361953-.0033068 5.4966932-2.4638047 5.5-5.5v-16.553c-.0038566-3.03596723-2.4640328-5.4961434-5.5-5.5z"/><path d="m86.269 77.755c0 2.671.025 5.266-.025 7.862-.0609913.2862916-.2734715.5164144-.554.6-2.621.05-5.266.025-7.962.025v-8.487z"/><path d="m51.773 17.357h-8.441v-8.441h8.441z"/><path d="m77.55 51.826v-8.491h8.794v8.492l.025-.025h-8.869z"/><path d="m51.875 86.322h-8.492v-8.794h8.492l-.025-.025v8.869z"/><path d="m51.875 68.936h-8.492v-8.517h8.492l-.025-.025v8.592z"/><path d="m26.173 43.31h8.416v8.416h-8.416z"/><path d="m60.441 51.826v-8.491h8.517v8.492l.05-.025h-8.592z"/><path d="m13.222 21.741v-8.542h8.542v3.452c0 1.386.05 2.772-.025 4.158-.025.328-.4.907-.655.907-2.571.05-5.162.025-7.862.025z"/><path d="m81.909 13.224v8.517c-2.7 0-5.317.025-7.962-.025-.2 0-.554-.4-.554-.6-.05-2.6-.025-5.191-.025-7.862 2.872-.03 5.643-.03 8.541-.03z"/><path d="m13.222 81.837v-8.517h6.929c1.638 0 1.638 0 1.638 1.613v6.9z"/><path d="m60.391 60.369h8.592v8.592h-8.592z"/></g></svg>

<?xml version="1.0" encoding="UTF-8"?>
<svg width="95px" height="96px" viewBox="0 0 95 96" version="1.1" xmlns="http://www.w3.org/2000/svg" xmlns:xlink="http://www.w3.org/1999/xlink">
    <!-- Generator: Sketch 63.1 (92452) - https://sketch.com -->
    <title>why-digital-tips</title>
    <desc>Created with Sketch.</desc>
    <g id="Page-1" stroke="none" stroke-width="1" fill="none" fill-rule="evenodd">
        <g id="why-digital-tips" transform="translate(-1.000000, 0.000000)" fill="#686868" fill-rule="nonzero">
            <g id="Group_3156" transform="translate(0.774000, 0.348000)">
                <path d="M25.77,34.668 L9.266,34.668 C6.85624804,34.7726329 4.51222981,33.8664737 2.79947279,32.1681463 C1.08671578,30.4698189 0.160758056,28.1335509 0.245,25.723 C0.22,20.204 0.22,14.609 0.245,9.092 C0.210543475,6.72187646 1.12171394,4.43567348 2.777,2.739 C4.49130745,1.09087602 6.78722,0.186599881 9.165,0.223 C11.926,0.21 14.726,0.204 17.48,0.204 C20.234,0.204 23.036,0.21 25.795,0.223 C28.1719142,0.186985833 30.4655288,1.09795557 32.17,2.755 C33.8205171,4.46806551 34.7264193,6.7644555 34.69,9.143 C34.715,14.66 34.715,20.255 34.69,25.773 C34.761703,28.1577372 33.8441177,30.4659788 32.154726,32.1506356 C30.4653344,33.8352924 28.1545265,34.7463958 25.77,34.668 L25.77,34.668 Z M9.294,3.79 C6.25803277,3.7938566 3.7978566,6.25403277 3.794,9.29 L3.794,25.844 C3.7973068,28.8801953 6.25780465,31.3406932 9.294,31.344 L25.848,31.344 C28.8841953,31.3406932 31.3446932,28.8801953 31.348,25.844 L31.348,9.291 C31.3441434,6.25503277 28.8839672,3.7948566 25.848,3.791 L9.294,3.79 Z" id="Subtraction_2"></path>
                <path d="M25.77,94.784 L9.266,94.784 C6.85624804,94.8886329 4.51222981,93.9824737 2.79947279,92.2841463 C1.08671578,90.5858189 0.160758056,88.2495509 0.245,85.839 C0.22,80.32 0.22,74.725 0.245,69.208 C0.210543475,66.8378765 1.12171394,64.5516735 2.777,62.855 C4.49130745,61.206876 6.78722,60.3025999 9.165,60.339 C11.926,60.326 14.726,60.32 17.48,60.32 C20.234,60.32 23.036,60.326 25.795,60.339 C28.1719142,60.3029858 30.4655288,61.2139556 32.17,62.871 C33.8205171,64.5840655 34.7264193,66.8804555 34.69,69.259 C34.715,74.776 34.715,80.371 34.69,85.889 C34.761703,88.2737372 33.8441177,90.5819788 32.154726,92.2666356 C30.4653344,93.9512924 28.1545265,94.8623958 25.77,94.784 L25.77,94.784 Z M9.294,63.906 C6.25803277,63.9098566 3.7978566,66.3700328 3.794,69.406 L3.794,85.96 C3.7973068,88.9961953 6.25780465,91.4566932 9.294,91.46 L25.848,91.46 C28.8841953,91.4566932 31.3446932,88.9961953 31.348,85.96 L31.348,69.407 C31.3441434,66.3710328 28.8839672,63.9108566 25.848,63.907 L9.294,63.906 Z" id="Subtraction_3"></path>
                <path d="M85.887,34.668 L69.383,34.668 C66.973248,34.7726329 64.6292298,33.8664737 62.9164728,32.1681463 C61.2037158,30.4698189 60.2777581,28.1335509 60.362,25.723 C60.337,20.204 60.337,14.609 60.362,9.092 C60.3275435,6.72187646 61.2387139,4.43567348 62.894,2.739 C64.6083075,1.09087602 66.90422,0.186599881 69.282,0.223 C72.043,0.21 74.843,0.204 77.597,0.204 C80.351,0.204 83.153,0.21 85.912,0.223 C88.2889142,0.186985833 90.5825288,1.09795557 92.287,2.755 C93.9375171,4.46806551 94.8434193,6.7644555 94.807,9.143 C94.832,14.66 94.832,20.255 94.807,25.773 C94.878703,28.1577372 93.9611177,30.4659788 92.271726,32.1506356 C90.5823344,33.8352924 88.2715265,34.7463958 85.887,34.668 L85.887,34.668 Z M69.411,3.79 C66.3750328,3.7938566 63.9148566,6.25403277 63.911,9.29 L63.911,25.844 C63.9143068,28.8801953 66.3748047,31.3406932 69.411,31.344 L85.965,31.344 C89.0011953,31.3406932 91.4616932,28.8801953 91.465,25.844 L91.465,9.291 C91.4611434,6.25503277 89.0009672,3.7948566 85.965,3.791 L69.411,3.79 Z" id="Subtraction_4"></path>
                <path d="M86.269,77.755 C86.269,80.426 86.294,83.021 86.244,85.617 C86.1830087,85.9032916 85.9705285,86.1334144 85.69,86.217 C83.069,86.267 80.424,86.242 77.728,86.242 L77.728,77.755 L86.269,77.755 Z" id="Path_708"></path>
                <polygon id="Path_709" points="51.773 17.357 43.332 17.357 43.332 8.916 51.773 8.916"></polygon>
                <polygon id="Path_710" points="77.55 51.826 77.55 43.335 86.344 43.335 86.344 51.827 86.369 51.802 77.5 51.802"></polygon>
                <polygon id="Path_712" points="51.875 86.322 43.383 86.322 43.383 77.528 51.875 77.528 51.85 77.503 51.85 86.372"></polygon>
                <polygon id="Path_715" points="51.875 68.936 43.383 68.936 43.383 60.419 51.875 60.419 51.85 60.394 51.85 68.986"></polygon>
                <polygon id="Path_716" points="26.173 43.31 34.589 43.31 34.589 51.726 26.173 51.726"></polygon>
                <polygon id="Path_719" points="60.441 51.826 60.441 43.335 68.958 43.335 68.958 51.827 69.008 51.802 60.416 51.802"></polygon>
                <path d="M13.222,21.741 L13.222,13.199 L21.764,13.199 L21.764,16.651 C21.764,18.037 21.814,19.423 21.739,20.809 C21.714,21.137 21.339,21.716 21.084,21.716 C18.513,21.766 15.922,21.741 13.222,21.741 Z" id="Path_728"></path>
                <path d="M81.909,13.224 L81.909,21.741 C79.209,21.741 76.592,21.766 73.947,21.716 C73.747,21.716 73.393,21.316 73.393,21.116 C73.343,18.516 73.368,15.925 73.368,13.254 C76.24,13.224 79.011,13.224 81.909,13.224 Z" id="Path_729"></path>
                <path d="M13.222,81.837 L13.222,73.32 L20.151,73.32 C21.789,73.32 21.789,73.32 21.789,74.933 L21.789,81.833 L13.222,81.837 Z" id="Path_730"></path>
                <polygon id="Path_731" points="60.391 60.369 68.983 60.369 68.983 68.961 60.391 68.961"></polygon>
            </g>
        </g>
    </g>
</svg>
